X:1
T:Det står ett ljus i Österland
T:W Peterson-Berger(1867-1942)
T:Det står ett ljus i Österland
T:(Svensk folkvisa)
T:©CPDL Edition may be freely distributed, duplicated, performed and recorded PA Aglert
T:©CPDL Edition may be freely distributed, duplicated, performed and recorded PA Aglert
T:©CPDL Edition may be freely distributed, duplicated, performed and recorded PA Aglert
T:©CPDL Edition may be freely distributed, duplicated, performed and recorded PA Aglert
T:©CPDL Edition may be freely distributed, duplicated, performed and recorded PA Aglert
C:W Peterson-Berger(1867-1942)
Z:©CPDL Edition may be freely distributed, duplicated, performed and recorded
Z:PA Aglert
%%score [ 1 2 3 4 ]
L:1/8
Q:1/4=80
M:3/4
K:Eb
V:1 treble nm="S"
V:2 treble nm="A"
V:3 treble-8 nm="T"
V:4 bass nm="B"
V:1
"^Andante"!f!!<(! E | (3(EG)B e3!<)!!>(! c | Ac!>)!!mp! B3!<(! G | F!<)!!>(!c!>)!!mp! (B2!>(! A)D | %4
w: Det|står * ett ljus i|Ös- ter- land, det|ly- ser som * en|
 F2!>)!!pp! E2- E/ z/!p!!<(! E | (3(EG)B!<)!!f! e3 c | Ac B3!>(! G | Fc (B2 A)D | %8
w: stjär- na. * Det|är * så likt min|lil- la vän, den|vän jag ser * så|
 F2 E2- E/ z/!>)!!p! G | B>G F3 A | c>B G3 E |!<(! (3(EG)B!<)!!f! e3 c | %12
w: gär- na. * Jag|tror den stjär- nan|le- ver än och|tän- * der upp sitt|
!>(! A(c/!>)!B/)!mf! G3!>(! B | AF!<(! (EG!<)! B)!>(!A!>)!!>)! |!p!!>(! F2 E3!>)!!pp! G | %15
w: ljus i- * gen e-|mel- lan så- * * ta|vän- ner. Jag|
 B>G F3 A | c>B G3!<(! E | (3(EG)B!<)!!mf! e3 c |!>(! A(c/B/)!>)!!p! G3!>(! B | %19
w: tror den stjär- nan|le- ver än och|tän- * der upp sitt|ljus i- * gen e-|
 AF!<(! (EG!<)! B)!>(!A!>)!!>)! |!pp! F2 E2- !fermata!E/ !fermata!z/!f! E | (3(EG)B e3 c | %22
w: mel- lan så- * * ta|vän- ner. * Att|vi * o- vän- ner|
 Ac B3!>(! G | Fc (B2 A)D!>)! |!p! F2 E2-!>(! E/ z/ E!>)! |!pp! (3(EG)B e3 c |!<(! A!<)!c!p! B3 G | %27
w: kun- de bli, som|så- na vän- * ner|va- rit, * och|som * en lång- an,|lång- an tid var-|
!<(! F!<)!c (B2!>(! A)D!>)! |!p! F2 E2- E/ z/ E | B>G F3 A | c>B G3!<(! E | (3(EG)B!<)!!f! e3 c | %32
w: and- ra kä- * ra|ha- vit! * Så|långt som him- mel|är från jord, så|långt * är du från|
 A(c/B/) G3!>(! B | AF!<(! (EG B)!<)!!>(!A!>)! | F2!>)!!p!!>(! E3!>)! G!pp! | B>G F3 A | %36
w: di- na * ord, som|du med mig * * har|ta- lat. Så|långt som him- mel|
 c>B G3!<(! E | (3(EG)B!<)!!f! e3 c | A(c/B/) G3!>)!!>(! B |!>(! AF (EG B)A | F2 !fermata!E4!>)! |] %41
w: är från jord, så|långt * är du från|di- na * ord, som|du med mig * * har|ta- lat.|
V:2
!f!!<(! E | (3(EG)B e3!<)!!>(! A | AA!>)!!mp! G3!<(! E!<)! | E!>(!F!>)!!mp! (G2!>(! F)D | %4
w: Det|står * ett ljus i|Ös- ter- land, det|ly- ser som * en|
 B,2!>)!!pp! B,2- B,/ z/!p! E |!<(! (3:2:2E2 D!<)!!f! C3 A | AF F3!>(! =E | %7
w: stjär- na. * Det|är så likt min|lil- la vän, den|
 FD (D!courtesy!_E F)B, | A,2 G,2- G,/ z/!>)!!p! E | E>E E3 E | D>F E3 E | %11
w: vän jag ser * * så|gär- na. * Jag|tror den stjär- nan|le- ver än och|
!<(! (3:2:2E2 F!<)!!f! G3 G |!>(! AF!>)!!mf! =E3!>(! G | FC E3 E!>)! |!p! D2!>(! E3!>)!!pp! E | %15
w: tän- der upp sitt|ljus i- gen e-|mel- lan så- ta|vän- ner. Jag|
 E>E E3 E | D>F E3 E |!<(! (3:2:2E2 F!<)!!mf! G3 G |!>(! AF!>)!!p! =E3!>(! G | FC E3 E!>)! | %20
w: tror den stjär- nan|le- ver än och|tän- der upp sitt|ljus i- gen e-|mel- lan så- ta|
!pp! D2 E2- !fermata!E/ !fermata!z/!f! B, | (3(B,E)G B3 A | EF G3!>(! E | EE (ED C)B,!>)! | %24
w: vän- ner. * Att|vi * o- vän- ner|kun- de bli, som|så- na vän- * * ner|
!p! A,2 G,2-!>(! G,/ z/ B,!>)! |!pp! (3:2:2B,2 E E3 E |!<(! E!<)!E!p! =E3 E | %27
w: va- rit, * och|som en lång- an,|lång- an tid var-|
!<(! F!<)!G (G2!>(! F)D!>)! |!p! =B,2 C2- C/ z/ E | E>E E3 E | E>D E3 z | (3:2:2z2 F!f! Gc BG | %32
w: and- ra kä- * ra|ha- vit! * Så|långt som him- mel|är från jord,|så långt är du från|
 AF =E3!>(! G | FC E3 E | D2!>)!!p!!>(! E3!>)! _D!pp! | _D>D D3 D | _D>D D3!<(! D | %37
w: di- na ord, som|du med mig har|ta- lat. Så|långt som him- mel|är från jord, så|
 (3:2:2_D2 D!<)!!f! D3 D | CF E3!>)!!>(! G |!>(! FC E3 E | D2 !fermata!E4!>)! |] %41
w: långt är du från|di- na ord, som|du med mig har|ta- lat.|
V:3
!f!!<(! E | (3(EG)B e3!<)!!>(! e | ef!>)!!mp! g3!<(! B!<)! | c!>(!e!>)!!mp! e3!>(! B | %4
w: Det|står * ett ljus i|Ös- ter- land, det|ly- ser som en|
 A2!>)!!pp! G2- G/ z/!p!!<(! B | (3(cB)A!<)!!f! a3 e | ed _d3!>(! c | cA (B2 c)d | %8
w: stjär- na. * Det|är * så likt min|lil- la vän, den|vän jag ser * så|
 B2 B2- B/ z/!>)!!p! B | B>e c3 c | A>d B3 e |!<(! (3:2:2e2!<)! e!f! e3 e | %12
w: gär- na. * Jag|tror den stjär- nan|le- ver än och|tän- der upp sitt|
!>(! e_d!>)!!mf! c3!>(! c | cA!<(! (GB!<)! d)!>(!c!>)!!>)! |!p! A2!>(! G3!>)!!pp! B | B>e c3 c | %16
w: ljus i- gen e-|mel- lan så- * * ta|vän- ner. Jag|tror den stjär- nan|
 A>d B3!<(! e | (3:2:2e2 e!<)!!mf! e3 e |!>(! e_d!>)!!p! c3!>(! c | %19
w: le- ver än och|tän- der upp sitt|ljus i- gen e-|
 cA!<(! (GB!<)!!>(! !courtesy!=d)c!>)!!>)! |!pp! A2 G2- !fermata!G/ !fermata!z/!f! G | %21
w: mel- lan så- * * ta|vän- ner. * Att|
 (3(GB)e g3 f | cd e3!>(! B | AG F2 B2!>)! |!p! B2 B2-!>(! B/ z/ G!>)! |!pp! (3:2:2G2 G G3 G | %26
w: vi * o- vän- ner|kun- de bli, som|så- na vän- ner|va- rit, * och|som en lång- an,|
!<(! F!<)!A!p! c3 c |!<(! c!<)!c c3!>(! =B!>)! |!p! G2 G3 G | G>B A3 F | A>B c3!<(! c | %31
w: lång- an tid var-|and- ra kä- ra|ha- vit! Så|långt som him- mel|är från jord, så|
 (3:2:2e2 d!<)!!f! _d3 d | _dd c3!>(! c | cA!<(! (GB d)!<)!!>(!c!>)! | A2!>)!!p!!>(! G3!>)! B!pp! | %35
w: långt är du från|di- na ord, som|du med mig * * har|ta- lat. Så|
 G>B A3 F | A>G B3!<(! !>!G | (3(!>!G!>!B)!>!e!<)!!f! !>!g3 !>!f | ed _d3!>)!!>(! d | %39
w: långt som him- mel|är från jord, så|långt * är du från|di- na ord, som|
!>(! cA!<(! (GB d)!<)!!>(!c!>)! | A2 !fermata!G4!>)! |] %41
w: du med mig * * har|ta- lat.|
V:4
!f!!<(! E, | (3(E,G,)B, E3!<)!!>(! A, | CD!>)!!mp! E3!<(! G,!<)! | A,!>)!!>(!=A,!mp! B,3!>(! B, | %4
w: Det|står * ett ljus i|Ös- ter- land, det|ly- ser som en|
 E,2!>)!!pp! E,2- E,/ z/!p! G, |!<(! (3(A,G,)F,!<)!!f! E,3 E, | F,A, G,3!>(! C | A,F, (G,2 A,)B, | %8
w: stjär- na. * Det|är * så likt min|lil- la vän, den|vän jag ser * så|
 E,2 E,2- E,/ z/!>)!!p! E, | G,>E, A,3 F, | B,,>B,, E,3 E |!<(! (3:2:2E2!<)! D!f! D3 D | %12
w: gär- na. * Jag|tror den stjär- nan|le- ver än och|tän- der upp sitt|
!>(! CG,!>)!!mf! C3!>(! =E, | F,A,, B,,3!>)! B,, |!p!!>(! B,,2 E,3!>)!!pp! E, | G,>E, A,3 F, | %16
w: ljus i- gen e-|mel- lan så- ta|vän- ner. Jag|tror den stjär- nan|
 B,,>B,, E,3!<(! E | (3:2:2E2 D!<)!!mf! _D3 D |!>(! CG,!>)!!p! C3!>(! =E, | F,A,, B,,3 B,,!>)! | %20
w: le- ver än och|tän- der upp sitt|ljus i- gen e-|mel- lan så- ta|
!pp! B,,2 E,2- !fermata!E,/ !fermata!z/!f! E, | (3:2:2E,2 E, E,3 E, | E,E, E,3!>(! E, | %23
w: vän- ner. * Att|vi o- vän- ner|kun- de bli, som|
 E,E, E,2 E,2!>)! |!p! E,2 E,2!>(! D,2!>)! |!pp! (3:2:2_D,2 D, C,3 C, |!<(! C,!<)!C,!p! C,3 B, | %27
w: så- na vän- ner|va- rit, och|som en lång- an,|lång- an tid var-|
!<(! A,=E,!<)! F,3!>(! G,!>)! |!p! C,2 C,3 C, | C,3 C, C,C, | C,3 C, C,!<(!C | %31
w: and- ra kä- ra|ha- vit! Så|långt som him- mel|är från jord, så|
 (3:2:2C2 B,!<)!!f! (E,4 | F,)G, CC, C,!>(!=E, | F,A,, B,,3 B,,!>)! | B,,2!p!!>(! E,3!>)! E,!pp! | %35
w: långt är du|* från di- na ord, som|du med mig har|ta- lat. Så|
 E,3 E, E,E, | E,3 E, E,!<(!E, | E,3 E,!<)! E,!f!E, |!>(! E,3 E,!>)! E,=E, |!>(! F,A,, B,,3 B,, | %40
w: långt som him- mel|är från jord, så|långt är du från|di- na ord, som|du med mig har|
 B,,2 !fermata!E,4!>)! |] %41
w: ta- lat.|

